X: 3642
T: Bill Sullivan's
R: polka
M: 2/4
K: Amajor
|:e2 e>d|cA e>d|cA e>d|cA dc|
e2 e>d|cA e2|ea d>e|dc c2:|
|:d|ea ae|fa ae|ea ae|fe e2|
ea ae|fa ae|ea d>e|dc c2:|

